packages/icons/src/svg/16/hieroglyph_character_outline_16.svg

<svg width="16" height="16" viewBox="0 0 16 16" fill="none" xmlns="http://www.w3.org/2000/svg">
<path d="M6.25 1.75C6.25 1.33579 5.91421 1 5.5 1C5.08579 1 4.75 1.33579 4.75 1.75V3H1.75C1.33579 3 1 3.33579 1 3.75C1 4.16421 1.33579 4.5 1.75 4.5H6.50001V4.64301C6.50001 5.55051 6.49344 5.86028 6.41615 6.13542C6.34187 6.39982 6.21982 6.64839 6.05602 6.86883C5.91592 7.05737 5.72809 7.22241 5.26691 7.58332L4.3603 6.31407C4.11954 5.97701 3.65113 5.89894 3.31407 6.1397C2.97701 6.38045 2.89894 6.84887 3.1397 7.18593L4.07971 8.50195L1.29142 10.6565C0.963659 10.9098 0.903272 11.3808 1.15654 11.7086C1.40981 12.0363 1.88083 12.0967 2.20859 11.8435L4.95219 9.72341L5.6397 10.6859C5.88045 11.023 6.34887 11.1011 6.68593 10.8603C7.02299 10.6195 7.10105 10.1511 6.8603 9.81407L6.13987 8.80547C6.63269 8.42256 6.98891 8.12832 7.26002 7.76346C7.53302 7.39606 7.73645 6.98178 7.86025 6.54111C8.00047 6.04199 8.00029 5.51143 8.00003 4.74449L8.00001 4.5H9.25C9.66421 4.5 10 4.16421 10 3.75C10 3.33579 9.66421 3 9.25 3H6.25V1.75Z" fill="currentColor"/>
<path fill-rule="evenodd" clip-rule="evenodd" d="M11.1708 6.41459C11.0438 6.1605 10.7841 6 10.5 6C10.2159 6 9.95622 6.1605 9.82918 6.41459L6.07918 13.9146C5.89393 14.2851 6.0441 14.7356 6.41459 14.9208C6.78507 15.1061 7.23557 14.9559 7.42082 14.5854L8.46395 12.4991C8.47589 12.4997 8.48791 12.5 8.5 12.5H12.5C12.5121 12.5 12.5241 12.4997 12.536 12.4991L13.5792 14.5854C13.7644 14.9559 14.2149 15.1061 14.5854 14.9208C14.9559 14.7356 15.1061 14.2851 14.9208 13.9146L11.1708 6.41459ZM10.5 8.42705L11.7865 11H9.21352L10.5 8.42705Z" fill="currentColor"/>
</svg>

<svg xmlns="http://www.w3.org/2000/svg" width="16" height="16" viewBox="0 0 16 16" fill="currentColor"><path d="M6.25 1.75a.75.75 0 0 0-1.5 0V3h-3a.75.75 0 0 0 0 1.5H6.5v.143c0 .908-.007 1.217-.084 1.492a2.3 2.3 0 0 1-.36.734c-.14.188-.328.353-.79.714L4.36 6.314a.75.75 0 1 0-1.22.872l.94 1.316-2.789 2.154a.75.75 0 0 0 .918 1.188l2.743-2.12.688.962a.75.75 0 1 0 1.22-.872l-.72-1.009c.493-.382.849-.677 1.12-1.042a3.8 3.8 0 0 0 .6-1.222C8 6.042 8 5.511 8 4.744V4.5h1.25a.75.75 0 0 0 0-1.5h-3z"/><path fill-rule="evenodd" d="M11.17 6.415a.75.75 0 0 0-1.34 0l-3.75 7.5a.75.75 0 1 0 1.34.67L8.465 12.5l.036.001h4.036l1.043 2.085a.75.75 0 1 0 1.342-.67zm-.67 2.012L11.787 11H9.214z" clip-rule="evenodd"/></svg>
